public/assets/images/icons/red/decline/log.svg

<svg width="16" height="16" xmlns="http://www.w3.org/2000/svg" viewBox="0 0 16 16" shape-rendering="geometricPrecision" fill="#cb1800"><defs><mask id="a"><rect fill="#fff" width="100%" height="100%"/><path fill="#000" d="M17.414 1.215L14.79-1.414 13.066.308l-1.722-1.722-2.627 2.627 1.722 1.721-1.724 1.722 2.63 2.628 1.722-1.722 1.722 1.723 2.625-2.63-1.721-1.72z"/></mask></defs><path d="M16 4.656l-1.722-1.721L16 1.214 14.789.001l-1.723 1.721L11.344.001l-1.212 1.212 1.722 1.721-1.724 1.722 1.215 1.214 1.722-1.723 1.722 1.723z"/><path d="M1.81-.001v16h12.38v-16H1.81zm2.555 9.816a.84.84 0 1 1 .003-1.679.84.84 0 0 1-.003 1.679zm0-2.658a.84.84 0 1 1 .005-1.68.84.84 0 0 1-.005 1.68zm0-2.662a.839.839 0 1 1 .002-1.678.839.839 0 0 1-.002 1.678zm8.11 5.117h-6.08V8.338h6.08v1.274zm0-2.658h-6.08V5.678h6.08v1.276zm0-2.66h-6.08V3.019h6.08v1.275z" mask="url(#a)"/></svg>

<?xml version="1.0"?><!DOCTYPE svg PUBLIC "-//W3C//DTD SVG 1.1//EN" "http://www.w3.org/Graphics/SVG/1.1/DTD/svg11.dtd"><svg width="16px" height="16px" xmlns="http://www.w3.org/2000/svg" viewBox="0 0 16 16" shape-rendering="geometricPrecision" fill="#cb1800"><defs><mask id="decline-path"><rect fill="#fff" width="100%" height="100%"/><polygon points="17.414,1.215 14.79,-1.414 13.066,0.308 11.344,-1.414 8.717,1.213 10.439,2.934 8.715,4.656 11.345,7.284 13.067,5.562 14.789,7.285 17.414,4.655 15.693,2.935 " fill="#000"/></mask></defs><g fill="#cb1800"><polygon points="16,4.656 14.278,2.935 16,1.214 14.789,0.001 13.066,1.722 11.344,0.001 10.132,1.213 11.854,2.934 10.13,4.656 11.345,5.87 13.067,4.147 14.789,5.87 "/></g><g mask="url(#decline-path)"><g><g><path d="M1.81-0.001v16H14.19v-16H1.81z M4.365,9.815c-0.462,0-0.838-0.376-0.838-0.84c0-0.463,0.376-0.838,0.838-0.838 c0.464,0,0.842,0.375,0.842,0.838C5.207,9.439,4.829,9.815,4.365,9.815z M4.365,7.157c-0.462,0-0.838-0.376-0.838-0.844 c0-0.461,0.376-0.837,0.838-0.837c0.464,0,0.842,0.376,0.842,0.837C5.207,6.781,4.829,7.157,4.365,7.157z M4.365,4.495 c-0.462,0-0.838-0.376-0.838-0.838c0-0.464,0.376-0.84,0.838-0.84c0.464,0,0.842,0.376,0.842,0.84 C5.207,4.119,4.829,4.495,4.365,4.495z M12.475,9.612h-6.08V8.338h6.08V9.612z M12.475,6.954h-6.08V5.678h6.08V6.954z M12.475,4.294h-6.08V3.019h6.08V4.294z"/></g></g></g></svg>
